icon-themes/sifr_svg/cmd/sc_symbolshapes.quad-bevel.svg

<svg viewBox="0 0 16 16" xmlns="http://www.w3.org/2000/svg"><g fill="#555753"><path d="m3 3v10h10v-10z" opacity=".35"/><path d="m1 1v14h14v-14zm2.7070312 2h8.5859378l-2 2h-4.5859378zm-.7070312.7070312 2 2v4.5859378l-2 2zm10 0v8.5859378l-2-2v-4.5859378zm-7.2929688 7.2929688h4.5859378l2 2h-8.5859378z"/></g></svg>

<svg xmlns="http://www.w3.org/2000/svg" viewBox="0 0 16 16">
  <path
     style="opacity:0.35;fill:#555753"
     d="M 3,3 V 13 H 13 V 3 Z"
     />
  <path
     style="fill:#555753"
     d="M 1 1 L 1 15 L 15 15 L 15 1 L 1 1 z M 3.7070312 3 L 12.292969 3 L 10.292969 5 L 5.7070312 5 L 3.7070312 3 z M 3 3.7070312 L 5 5.7070312 L 5 10.292969 L 3 12.292969 L 3 3.7070312 z M 13 3.7070312 L 13 12.292969 L 11 10.292969 L 11 5.7070312 L 13 3.7070312 z M 5.7070312 11 L 10.292969 11 L 12.292969 13 L 3.7070312 13 L 5.7070312 11 z "
     />
</svg>
